packages/kaspersky-hexa-ui-icons/src/iconsSVGs/48/Backup.svg

<svg width="48" height="48" viewBox="0 0 48 48" fill="none" xmlns="http://www.w3.org/2000/svg">
<path fill-rule="evenodd" clip-rule="evenodd" d="M2.57 32.42C2.46806 32.46 2.35949 32.4804 2.25 32.48C1.82008 32.4811 1.43757 32.2073 1.3 31.8C1.25 31.63 1.19 31.47 1.14 31.3C0.976537 30.7756 1.26677 30.2174 1.79 30.05C2.04327 29.9684 2.31862 29.9912 2.5551 30.1131C2.79158 30.2351 2.96969 30.4464 3.05 30.7L3.2 31.16C3.37167 31.6818 3.0904 32.2443 2.57 32.42ZM7.31 38.32C7.08909 38.0134 6.71414 37.8574 6.3409 37.917C5.96767 37.9766 5.65992 38.2416 5.54551 38.6018C5.43109 38.962 5.52956 39.356 5.8 39.62C6.01 39.88 6.24 40.13 6.47 40.37C6.84613 40.7719 7.47634 40.7943 7.88 40.42C8.06931 40.2323 8.1758 39.9767 8.1758 39.71C8.1758 39.4434 8.06931 39.1878 7.88 39C7.72 38.78 7.51 38.55 7.31 38.32ZM10.66 41.48C10.3774 41.2446 9.98842 41.1833 9.64711 41.3204C9.30581 41.4575 9.06732 41.7708 9.02615 42.1363C8.98497 42.5018 9.14776 42.8604 9.45 43.07L10.26 43.67C10.43 43.7887 10.6327 43.8516 10.84 43.85C11.295 43.8705 11.7064 43.5808 11.8405 43.1455C11.9746 42.7102 11.7976 42.2392 11.41 42L10.66 41.48ZM4.66 34.53C4.39766 34.044 3.79101 33.8627 3.305 34.125C2.81899 34.3874 2.63766 34.994 2.9 35.48C3.07 35.78 3.23 36.07 3.41 36.36C3.59069 36.6568 3.91251 36.8386 4.26 36.84C4.44287 36.8418 4.62273 36.7934 4.78 36.7C5.2513 36.4149 5.40332 35.8024 5.12 35.33L4.66 34.53ZM19.84 45.61L18.94 45.41C18.6814 45.3502 18.4096 45.3956 18.1845 45.5363C17.9594 45.677 17.7995 45.9014 17.74 46.16C17.6802 46.4186 17.7256 46.6904 17.8663 46.9155C18.0069 47.1406 18.2313 47.3005 18.49 47.36C18.81 47.44 19.14 47.51 19.49 47.57H19.68C20.2323 47.6197 20.7203 47.2123 20.77 46.66C20.8197 46.1077 20.4123 45.6197 19.86 45.57L19.84 45.61ZM15.44 44.26C15.15 44.14 14.87 44.02 14.6 43.89C14.2746 43.7049 13.8731 43.7171 13.5595 43.9215C13.2459 44.1259 13.0727 44.4884 13.1107 44.8608C13.1487 45.2332 13.3916 45.5532 13.74 45.69C14.04 45.84 14.35 45.97 14.66 46.11C14.784 46.1604 14.9162 46.1875 15.05 46.19C15.4513 46.1897 15.8135 45.9495 15.97 45.58C16.0764 45.3349 16.0802 45.0574 15.9806 44.8094C15.8811 44.5614 15.6864 44.3635 15.44 44.26ZM24 3.54122e-05C14.4368 -0.0163679 5.78368 5.66716 2 14.45V9.00004H0V18H9V16H3.52C7.55614 5.66051 18.6621 -0.053124 29.421 2.67487C40.18 5.40286 47.2217 15.718 45.8437 26.7315C44.4656 37.745 35.0994 46.007 24 46H23.52C22.9677 46 22.52 46.4478 22.52 47C22.52 47.5523 22.9677 48 23.52 48H24C37.2548 48 48 37.2549 48 24C48 10.7452 37.2548 3.54122e-05 24 3.54122e-05ZM23 13V26H34V24H25V13H23Z"  fill="currentColor"/>
</svg>

<svg xmlns="http://www.w3.org/2000/svg" width="48" height="48" fill="none" viewBox="0 0 48 48"><path fill="currentColor" fill-rule="evenodd" d="M2.57 32.42a.87.87 0 0 1-.32.06 1 1 0 0 1-.95-.68c-.05-.17-.11-.33-.16-.5-.1635-.5244.1268-1.0826.65-1.25a1.0004 1.0004 0 0 1 1.26.65l.15.46a1 1 0 0 1-.63 1.26m4.74 5.9a1.0002 1.0002 0 0 0-1.7645.2818A1 1 0 0 0 5.8 39.62c.21.26.44.51.67.75.3761.4019 1.0063.4243 1.41.05a1 1 0 0 0 0-1.42c-.16-.22-.37-.45-.57-.68m3.35 3.16a1.0001 1.0001 0 1 0-1.21 1.59l.81.6a1 1 0 0 0 .58.18.9999.9999 0 0 0 .57-1.85zm-6-6.95c-.2623-.486-.869-.6673-1.355-.405-.486.2624-.6673.869-.405 1.355.17.3.33.59.51.88a1 1 0 0 0 .85.48 1 1 0 0 0 .52-.14c.4713-.2851.6233-.8976.34-1.37zm15.18 11.08-.9-.2a1 1 0 0 0-1.2.75 1 1 0 0 0 .75 1.2c.32.08.65.15 1 .21h.19c.5523.0497 1.0403-.3577 1.09-.91s-.3577-1.0403-.91-1.09zm-4.4-1.35c-.29-.12-.57-.24-.84-.37a1 1 0 1 0-.86 1.8c.3.15.61.28.92.42.124.0504.2562.0775.39.08a1 1 0 0 0 .92-.61 1 1 0 0 0 .0106-.7706 1 1 0 0 0-.5406-.5494M24 0C14.4368-.0164 5.7837 5.6672 2 14.45V9H0v9h9v-2H3.52C7.5561 5.6605 18.6621-.0531 29.421 2.6749S47.2217 15.718 45.8437 26.7315 35.0994 46.007 24 46h-.48c-.5523 0-1 .4478-1 1s.4477 1 1 1H24c13.2548 0 24-10.7451 24-24S37.2548 0 24 0m-1 13v13h11v-2h-9V13z" clip-rule="evenodd"/></svg>
